kinematics/images/circ6.svg

<svg xmlns="http://www.w3.org/2000/svg" width="161.6" height="118.8" style="width:161.60000610351562px;height:118.80000305175781px;background:0 0;fill:none"><svg xmlns="http://www.w3.org/2000/svg"/><svg xmlns="http://www.w3.org/2000/svg" class="role-diagram-draw-area"><g class="shapes-region" style="stroke:#000;fill:none"><g class="arrow-line"><path d="m37.36 40.03 2.65 4.28" class="connection real" style="stroke:#000;stroke-width:1;fill:none;fill-opacity:1"/></g><g class="composite-shape"><path d="M18.71 49.47c0-4.61 3.73-8.34 8.33-8.34 4.61 0 8.34 3.73 8.34 8.34 0 4.6-3.73 8.33-8.34 8.33a8.33 8.33 0 0 1-8.33-8.33Z" class="real" style="stroke-width:1;stroke:#900;stroke-opacity:1;fill:none;fill-opacity:1"/></g><g class="arrow-line"><path d="M27.04 57.8v31.33" class="connection real" style="stroke:#900;stroke-opacity:1;stroke-width:1;fill:none;fill-opacity:1"/></g><g class="arrow-line"><path d="m27.04 89.13-11.75 11.76" class="connection real" style="stroke:#900;stroke-opacity:1;stroke-width:1;fill:none;fill-opacity:1"/></g><g class="arrow-line"><path d="m27.04 89.13 11.17 11.17" class="connection real" style="stroke:#900;stroke-opacity:1;stroke-width:1;fill:none;fill-opacity:1"/></g><g class="arrow-line"><path d="m27.04 57.8-8.83 13.09" class="connection real" style="stroke:#900;stroke-opacity:1;stroke-width:1;fill:none;fill-opacity:1"/></g><g class="arrow-line"><path d="m27.04 57.8 10.32-17.77" class="connection real" style="stroke:#900;stroke-opacity:1;stroke-width:1;fill:none;fill-opacity:1"/></g><g class="composite-shape"><path d="M10 40.03c0-2.37 12.25-4.29 27.36-4.29s27.35 1.92 27.35 4.29-12.24 4.28-27.35 4.28S10 42.4 10 40.03Z" class="real" style="stroke-width:1;stroke:#000;stroke-opacity:1;fill:none;fill-opacity:1;stroke-dasharray:3"/></g><g class="composite-shape"><path d="M37.36 44.31a2.655 2.655 0 1 1 5.31.01 2.655 2.655 0 0 1-5.31-.01Z" class="real" style="stroke-width:1;stroke:#900;stroke-opacity:1;fill:#900;fill-opacity:1"/></g><g class="composite-shape" data-amt="diagram/shapes/plot"><g class="test-plot-expression" transform="translate(38.243 42.81)"><defs><clipPath id="cpkrfcw5p8b"><path d="M1 1h90.48v57.315H1z"/></clipPath></defs><g clip-path="url(#cpkrfcw5p8b)"><path d="m0 1.46.5-.01.51-.01h.5l.5.01.5.02.51.02.5.03.5.03.5.05.51.05.5.06.5.06.51.07.5.08.5.08.5.09.51.1.5.11.5.11.5.12.51.13.5.13.5.14.51.15.5.15.5.16.5.17.51.17.5.19.5.18.5.2.51.2.5.21.5.22.51.22.5.23.5.24.5.24.51.25.5.26.5.26.5.27.51.28.5.29.5.29.51.3.5.3.5.32.5.32.51.32.5.34.5.34.5.35.51.35.5.36.5.37.5.37.51.39.5.39.5.39.51.4.5.41.5.42.5.42.51.43.5.44.5.45.5.45.51.45.5.47.5.47.51.48.5.49.5.49.5.5.51.5.5.52.5.52.5.52.51.54.5.54.5.55.51.55.5.56.5.57.5.58.51.58.5.59.5.6.5.6.51.61.5.62.5.62.51.63.5.64.5.64.5.66.51.65.5.67.5.67.5.68.51.69.5.69.5.7.51.71.5.71.5.72.5.73.51.73.5.74.5.75.5.76.51.76.5.77.5.78.51.78.5.79.5.79.5.81.51.81.5.82.5.82.5.83.51.84.5.84.5.86.51.86.5.86.5.87.5.88.51.89.5.89.5.9.5.91.51.92.5.92.5.93.51.93.5.94.5.95.5.96.51.96.5.97.5.98.5.98.51.99.5 1 .5 1 .5 1.01.51 1.02.5 1.02.5 1.04.51 1.03.5 1.05.5 1.05.5 1.06.51 1.07.5 1.07.5 1.08.5 1.09.51 1.09.5 1.1.5 1.11.51 1.12.5 1.12.5 1.13.5 1.13.51 1.14.5 1.15.5 1.16.5 1.16.51 1.17.5 1.18.5 1.18.51 1.19.5 1.2.5 1.2.5 1.22.51 1.21.5 1.23.5 1.23.5 1.24.51 1.25.48 1.2" style="stroke-width:1;stroke:#900;stroke-opacity:1"/></g></g><path stroke="none" d="M1 1h90.48v57.315H1z" class="real" style="fill:transparent;stroke:none" transform="translate(38.243 42.81)"/></g><g class="arrow-line"><path d="M40.01 44.31h40.63" class="connection real" style="stroke:#900;stroke-opacity:1;stroke-width:1;fill:none;fill-opacity:1"/><path fill="#900" stroke="none" d="M10.72-5.15 0 0l10.72 5.15L7.12 0Z" style="stroke:none;fill:#900;stroke-width:1" transform="matrix(-1 0 0 -1 83.643 44.314)"/></g><g class="composite-shape"><defs><pattern id="_pgflmb3jmuwn" width="11.314" height="11.314" x="0" y="0" patternTransform="rotate(45 0 0)" patternUnits="userSpaceOnUse"><path d="M0 0v11.314M5.657 0v11.314M11.314 0v11.314" style="stroke:#000;stroke-opacity:1;stroke-width:1;fill:none"/></pattern></defs><path d="M-23 101.15h399.8v20.15H-23Z" class="real" style="stroke-width:1;stroke:#000;fill:url(#_pgflmb3jmuwn);fill-opacity:1"/></g></g></svg><svg xmlns="http://www.w3.org/2000/svg" xmlns:xlink="http://www.w3.org/1999/xlink" width="160" height="117.2" style="width:160px;height:117.20000457763672px;font-family:Asana-Math,Asana;background:0 0"><path fill="#900" stroke="#900" stroke-width=".136" d="M89.41 45.16c.357 0 .629-.017 1.07-.068-1.886 2.04-2.6 3.451-2.6 5.151 0 1.309.782 2.244 1.87 2.244 2.346 0 4.947-4.199 4.947-6.715 0-.969-.442-1.666-1.054-1.666-.221 0-.425.068-.561.204l-.85.799.187.323a.8.8 0 0 1 .459-.153c.459 0 .73.391.73 1.071 0 2.516-1.648 5.287-3.144 5.287-.833 0-1.36-.714-1.36-1.819 0-1.785.663-3.332 2.329-5.406l-.17-.306c-.34.153-.561.204-1.037.204s-1.19-.034-1.683-.085l-.204-.017c-.102-.017-.187-.017-.204-.017-.204 0-.357.034-.544.119-.238.459-.425 1.071-.646 2.006h.374l.289-.714c.119-.289.459-.476.867-.476.56 0 .289.034.935.034Z"/><path fill="#900" stroke="#900" stroke-width=".095" d="M98.705 47.113c-1.845 0-2.785 1.464-2.785 4.344 0 1.392.25 2.594.667 3.177a2.2 2.2 0 0 0 1.82.917c1.797 0 2.702-1.547 2.702-4.594 0-2.606-.774-3.844-2.404-3.844Zm-.214.417c1.154 0 1.618 1.166 1.618 4.022 0 2.535-.452 3.582-1.547 3.582-1.154 0-1.642-1.202-1.642-4.105 0-2.511.44-3.5 1.57-3.5Z"/><svg width="16.788" height="10" x="86.588" y="29.3" overflow="visible"><path d="m16.79 5.39-3.5-3.69-.54.58 2.14 2.58h-.17v1h.17l-2.14 2.58.54.58zm-14.92.42h14.41v-1H1.87z" style="fill:#900;fill-opacity:1;stroke-width:1px;stroke:none;stroke-opacity:1"/></svg></svg></svg>

<svg xmlns="http://www.w3.org/2000/svg" xmlns:xlink="http://www.w3.org/1999/xlink" x="0" y="0" width="161.60000610351562" height="118.80000305175781" style="
        width:161.60000610351562px;
        height:118.80000305175781px;
        background: transparent;
        fill: none;
">
        <svg xmlns="http://www.w3.org/2000/svg"/>
        
        <svg xmlns="http://www.w3.org/2000/svg" class="role-diagram-draw-area"><g class="shapes-region" style="stroke: black; fill: none;"><g class="arrow-line"><path class="connection real" stroke-dasharray="" d="  M37.36,40.03 L40.01,44.31" style="stroke: rgb(0, 0, 0); stroke-width: 1; fill: none; fill-opacity: 1;"/></g><g class="composite-shape"><path class="real" d=" M18.71,49.47 C18.71,44.86 22.44,41.13 27.04,41.13 C31.65,41.13 35.38,44.86 35.38,49.47 C35.38,54.07 31.65,57.8 27.04,57.8 C22.44,57.8 18.71,54.07 18.71,49.47 Z" style="stroke-width: 1; stroke: rgb(153, 0, 0); stroke-opacity: 1; fill: none; fill-opacity: 1;"/></g><g class="arrow-line"><path class="connection real" stroke-dasharray="" d="  M27.04,57.8 L27.04,89.13" style="stroke: rgb(153, 0, 0); stroke-opacity: 1; stroke-width: 1; fill: none; fill-opacity: 1;"/></g><g class="arrow-line"><path class="connection real" stroke-dasharray="" d="  M27.04,89.13 L15.29,100.89" style="stroke: rgb(153, 0, 0); stroke-opacity: 1; stroke-width: 1; fill: none; fill-opacity: 1;"/></g><g class="arrow-line"><path class="connection real" stroke-dasharray="" d="  M27.04,89.13 L38.21,100.3" style="stroke: rgb(153, 0, 0); stroke-opacity: 1; stroke-width: 1; fill: none; fill-opacity: 1;"/></g><g class="arrow-line"><path class="connection real" stroke-dasharray="" d="  M27.04,57.8 L18.21,70.89" style="stroke: rgb(153, 0, 0); stroke-opacity: 1; stroke-width: 1; fill: none; fill-opacity: 1;"/></g><g class="arrow-line"><path class="connection real" stroke-dasharray="" d="  M27.04,57.8 L37.36,40.03" style="stroke: rgb(153, 0, 0); stroke-opacity: 1; stroke-width: 1; fill: none; fill-opacity: 1;"/></g><g class="composite-shape"><path class="real" d=" M10,40.03 C10,37.66 22.25,35.74 37.36,35.74 C52.47,35.74 64.71,37.66 64.71,40.03 C64.71,42.4 52.47,44.31 37.36,44.31 C22.25,44.31 10,42.4 10,40.03 Z" style="stroke-width: 1; stroke: rgb(0, 0, 0); stroke-opacity: 1; fill: none; fill-opacity: 1; stroke-dasharray: 3;"/></g><g class="composite-shape"><path class="real" d=" M37.36,44.31 C37.36,42.85 38.55,41.66 40.01,41.66 C41.48,41.66 42.67,42.85 42.67,44.31 C42.67,45.78 41.48,46.97 40.01,46.97 C38.55,46.97 37.36,45.78 37.36,44.31 Z" style="stroke-width: 1; stroke: rgb(153, 0, 0); stroke-opacity: 1; fill: rgb(153, 0, 0); fill-opacity: 1;"/></g><g class="composite-shape" data-amt="diagram/shapes/plot" transform="matrix(1,0,0,1,38.24285539899556,42.80999488830564)"><g><g/><g><g class="test-plot-expression"><defs><clipPath id="cpkrfcw5p8b"><rect x="1" y="1" width="90.47999267578125" height="57.31500225067141"/></clipPath></defs><g clip-path="url(#cpkrfcw5p8b)"><path d=" M0.00,1.46 L0.50,1.45 L1.01,1.44 L1.51,1.44 L2.01,1.45 L2.51,1.47 L3.02,1.49 L3.52,1.52 L4.02,1.55 L4.52,1.60 L5.03,1.65 L5.53,1.71 L6.03,1.77 L6.54,1.84 L7.04,1.92 L7.54,2.00 L8.04,2.09 L8.55,2.19 L9.05,2.30 L9.55,2.41 L10.05,2.53 L10.56,2.66 L11.06,2.79 L11.56,2.93 L12.07,3.08 L12.57,3.23 L13.07,3.39 L13.57,3.56 L14.08,3.73 L14.58,3.92 L15.08,4.10 L15.58,4.30 L16.09,4.50 L16.59,4.71 L17.09,4.93 L17.60,5.15 L18.10,5.38 L18.60,5.62 L19.10,5.86 L19.61,6.11 L20.11,6.37 L20.61,6.63 L21.11,6.90 L21.62,7.18 L22.12,7.47 L22.62,7.76 L23.13,8.06 L23.63,8.36 L24.13,8.68 L24.63,9.00 L25.14,9.32 L25.64,9.66 L26.14,10.00 L26.64,10.35 L27.15,10.70 L27.65,11.06 L28.15,11.43 L28.65,11.80 L29.16,12.19 L29.66,12.58 L30.16,12.97 L30.67,13.37 L31.17,13.78 L31.67,14.20 L32.17,14.62 L32.68,15.05 L33.18,15.49 L33.68,15.94 L34.18,16.39 L34.69,16.84 L35.19,17.31 L35.69,17.78 L36.20,18.26 L36.70,18.75 L37.20,19.24 L37.70,19.74 L38.21,20.24 L38.71,20.76 L39.21,21.28 L39.71,21.80 L40.22,22.34 L40.72,22.88 L41.22,23.43 L41.73,23.98 L42.23,24.54 L42.73,25.11 L43.23,25.69 L43.74,26.27 L44.24,26.86 L44.74,27.46 L45.24,28.06 L45.75,28.67 L46.25,29.29 L46.75,29.91 L47.26,30.54 L47.76,31.18 L48.26,31.82 L48.76,32.48 L49.27,33.13 L49.77,33.80 L50.27,34.47 L50.77,35.15 L51.28,35.84 L51.78,36.53 L52.28,37.23 L52.79,37.94 L53.29,38.65 L53.79,39.37 L54.29,40.10 L54.80,40.83 L55.30,41.57 L55.80,42.32 L56.30,43.08 L56.81,43.84 L57.31,44.61 L57.81,45.39 L58.32,46.17 L58.82,46.96 L59.32,47.75 L59.82,48.56 L60.33,49.37 L60.83,50.19 L61.33,51.01 L61.83,51.84 L62.34,52.68 L62.84,53.52 L63.34,54.38 L63.85,55.24 L64.35,56.10 L64.85,56.97 L65.35,57.85 L65.86,58.74 L66.36,59.63 L66.86,60.53 L67.36,61.44 L67.87,62.36 L68.37,63.28 L68.87,64.21 L69.38,65.14 L69.88,66.08 L70.38,67.03 L70.88,67.99 L71.39,68.95 L71.89,69.92 L72.39,70.90 L72.89,71.88 L73.40,72.87 L73.90,73.87 L74.40,74.87 L74.90,75.88 L75.41,76.90 L75.91,77.92 L76.41,78.96 L76.92,79.99 L77.42,81.04 L77.92,82.09 L78.42,83.15 L78.93,84.22 L79.43,85.29 L79.93,86.37 L80.43,87.46 L80.94,88.55 L81.44,89.65 L81.94,90.76 L82.45,91.88 L82.95,93.00 L83.45,94.13 L83.95,95.26 L84.46,96.40 L84.96,97.55 L85.46,98.71 L85.96,99.87 L86.47,101.04 L86.97,102.22 L87.47,103.40 L87.98,104.59 L88.48,105.79 L88.98,106.99 L89.48,108.21 L89.99,109.42 L90.49,110.65 L90.99,111.88 L91.49,113.12 L92.00,114.37 L92.48,115.57" style="stroke-width: 1; stroke: rgb(153, 0, 0); stroke-opacity: 1;"/></g></g><rect class="real" x="1" y="1" width="90.47999267578125" height="57.31500225067141" style="fill: transparent; stroke: none;"/></g></g></g><g class="arrow-line"><path class="connection real" stroke-dasharray="" d="  M40.01,44.31 L80.64,44.31" style="stroke: rgb(153, 0, 0); stroke-opacity: 1; stroke-width: 1; fill: none; fill-opacity: 1;"/><g stroke="none" fill="rgb(153,0,0)" fill-opacity="1" transform="matrix(-1,1.2246467991473532e-16,-1.2246467991473532e-16,-1,83.64285387311662,44.314281736101414)" style="stroke: none; fill: rgb(153, 0, 0); stroke-width: 1;"><path d=" M10.72,-5.15 L0,0 L10.72,5.15 L7.12,0 Z"/></g></g><g class="composite-shape"><defs><!-- react-text: 81082 --> <!-- /react-text --><pattern id="_pgflmb3jmuwn" x="0" y="0" width="11.313708498984761" height="11.313708498984761" patternTransform="rotate(45,0,0)" patternUnits="userSpaceOnUse"><path d="M0,0 L0,11.313708498984761" style="stroke: rgb(0, 0, 0); stroke-opacity: 1; stroke-width: 1; fill: none;"/><path d="M5.656854249492381,0 L5.656854249492381,11.313708498984761" style="stroke: rgb(0, 0, 0); stroke-opacity: 1; stroke-width: 1; fill: none;"/><path d="M11.313708498984761,0 L11.313708498984761,11.313708498984761" style="stroke: rgb(0, 0, 0); stroke-opacity: 1; stroke-width: 1; fill: none;"/></pattern></defs><path class="real" d=" M-23,101.15 L376.8,101.15 L376.8,121.3 L-23,121.3 Z" style="stroke-width: 1; stroke: rgb(0, 0, 0); fill: url(&quot;#_pgflmb3jmuwn&quot;); fill-opacity: 1;"/></g><g/></g><g/><g/><g/></svg>
        <svg xmlns="http://www.w3.org/2000/svg" xmlns:xlink="http://www.w3.org/1999/xlink" width="160" height="117.20000457763672" style="width:160px;height:117.20000457763672px;font-family:Asana-Math, Asana;background:transparent;"><g><g><g><g><g><g><g transform="matrix(1,0,0,1,86.5875244140625,52.30000305175781)"><path transform="matrix(0.017,0,0,-0.017,0,0)" d="M166 420C187 420 203 421 229 424C118 304 76 221 76 121C76 44 122 -11 186 -11C324 -11 477 236 477 384C477 441 451 482 415 482C402 482 390 478 382 470L332 423L343 404C352 410 361 413 370 413C397 413 413 390 413 350C413 202 316 39 228 39C179 39 148 81 148 146C148 251 187 342 285 464L275 482C255 473 242 470 214 470C186 470 144 472 115 475L103 476C97 477 92 477 91 477C79 477 70 475 59 470C45 443 34 407 21 352L43 352L60 394C67 411 87 422 111 422C144 422 128 420 166 420Z" stroke="rgb(153,0,0)" stroke-opacity="1" stroke-width="8" fill="rgb(153,0,0)" fill-opacity="1"></path></g></g><g><g><g><g><g transform="matrix(1,0,0,1,95.57501220703125,55.312506103515624)"><path transform="matrix(0.0119,0,0,-0.0119,0,0)" d="M263 689C108 689 29 566 29 324C29 207 50 106 85 57C120 8 176 -20 238 -20C389 -20 465 110 465 366C465 585 400 689 263 689ZM245 654C342 654 381 556 381 316C381 103 343 15 251 15C154 15 113 116 113 360C113 571 150 654 245 654Z" stroke="rgb(153,0,0)" stroke-opacity="1" stroke-width="8" fill="rgb(153,0,0)" fill-opacity="1"></path></g></g></g></g></g></g></g><svg x="86.5875244140625" overflow="visible" y="29.300003051757812" height="10" width="16.787500381469727"><path d=" M 16.79 5.39 l -3.50 -3.69 l -0.54 0.58 l 2.14 2.58 h -0.17 v 1.00 h 0.17 l -2.14 2.58 l 0.54 0.58 z  M 1.87 5.81 h 14.41 v -1.00 h -14.41 z" style="fill:rgb(153,0,0);fill-opacity:1;stroke-width:1px;stroke:none;stroke-opacity:1;"></path></svg></g></g></g></svg>
</svg>
